assets/images/v4/icon-receive.svg

<svg fill="none" height="17" viewBox="0 0 17 17" width="17" xmlns="http://www.w3.org/2000/svg"><g fill="#fff"><path d="m11.2306 10.1004c-.2162-.2162-.5838-.2162-.8 0l-1.25406 1.2541c-.58378.5837-1.9027.1946-2.96216-.8649-1.05946-1.05946-1.44865-2.37838-.86487-2.96216l1.25406-1.25406c.21621-.21621.21621-.58378 0-.8l-2.87568-2.87567c-.21622-.21622-.58378-.21622-.8 0l-.84324.84324c-1.686489 1.68649-.56216 5.55676 2.52973 8.64865 3.09189 3.0919 6.96212 4.2378 8.64862 2.5297l.8433-.8432c.2162-.2162.2162-.5838 0-.8z"/><path d="m8.29015 1.58144c-.28108-.02162-.49729.21622-.47567.51892.02162.21622.23784.38919.45405.41081 3.19997.21622 5.75137 2.78919 5.96757 5.98919.0216.23784.2162.43244.4541.43244.2594 0 .4756-.21622.454-.4973-.2378-3.67568-3.1784-6.61622-6.85405-6.85406z"/><path d="m8.24676 4.78149c1.94594.19459 3.50274 1.75135 3.69734 3.71892.0216.23783.2162.41081.454.41081.2595 0 .4757-.23784.4541-.4973-.2379-2.4-2.1406-4.32433-4.54057-4.56216-.3027-.02163-.56216.25946-.47568.58378.04325.21622.21622.32432.41081.34595z"/></g></svg>

<svg width="17" height="17" viewBox="0 0 17 17" fill="none" xmlns="http://www.w3.org/2000/svg">
<path d="M11.2306 10.1004C11.0144 9.8842 10.6468 9.8842 10.4306 10.1004L9.17654 11.3545C8.59276 11.9382 7.27384 11.5491 6.21438 10.4896C5.15492 9.43014 4.76573 8.11122 5.34951 7.52744L6.60357 6.27338C6.81978 6.05717 6.81978 5.6896 6.60357 5.47338L3.72789 2.59771C3.51167 2.38149 3.14411 2.38149 2.92789 2.59771L2.08465 3.44095C0.398161 5.12744 1.52249 8.99771 4.61438 12.0896C7.70627 15.1815 11.5765 16.3274 13.263 14.6193L14.1063 13.7761C14.3225 13.5599 14.3225 13.1923 14.1063 12.9761L11.2306 10.1004Z" fill="white"/>
<path d="M8.29015 1.58144C8.00907 1.55982 7.79286 1.79766 7.81448 2.10036C7.8361 2.31658 8.05232 2.48955 8.26853 2.51117C11.4685 2.72739 14.0199 5.30036 14.2361 8.50036C14.2577 8.7382 14.4523 8.9328 14.6902 8.9328C14.9496 8.9328 15.1658 8.71658 15.1442 8.4355C14.9064 4.75982 11.9658 1.81928 8.29015 1.58144Z" fill="white"/>
<path d="M8.24676 4.78149C10.1927 4.97608 11.7495 6.53284 11.9441 8.50041C11.9657 8.73824 12.1603 8.91122 12.3981 8.91122C12.6576 8.91122 12.8738 8.67338 12.8522 8.41392C12.6143 6.01392 10.7116 4.08959 8.31163 3.85176C8.00893 3.83013 7.74947 4.11122 7.83595 4.43554C7.8792 4.65176 8.05217 4.75986 8.24676 4.78149Z" fill="white"/>
</svg>
